icons/3_Generic/Key.svg

<svg width="1024" height="1024" viewBox="0 0 1024 1024" fill="none" xmlns="http://www.w3.org/2000/svg">
<g clip-path="url(#clip0_3_401)">
<path d="M512 1024C794.77 1024 1024 794.77 1024 512C1024 229.23 794.77 0 512 0C229.23 0 0 229.23 0 512C0 794.77 229.23 1024 512 1024Z" fill="#8C72BD"/>
<path d="M578.099 267C479.489 267.06 399.589 347.06 399.659 445.67C399.669 465.29 402.919 484.78 409.269 503.35L275.569 637.07C272.997 639.644 271.549 643.131 271.539 646.77V738.28C271.539 745.86 277.689 752.01 285.269 752.01H376.779C384.359 752.01 390.509 745.86 390.509 738.28V697.1H431.689C439.269 697.1 445.419 690.95 445.419 683.37V642.19H486.599C490.239 642.19 493.729 640.74 496.299 638.16L520.209 614.28C613.449 646.18 714.909 596.46 746.809 503.21C778.709 409.97 728.989 308.51 635.739 276.61C617.187 270.263 597.716 267.016 578.109 267H578.099ZM578.099 596.43C558.959 596.46 539.989 592.84 522.209 585.75C519.681 584.65 516.88 584.337 514.17 584.85C511.461 585.364 508.969 586.681 507.019 588.63L480.889 614.73H431.679C424.099 614.73 417.949 620.88 417.949 628.46V669.64H376.769C369.189 669.64 363.039 675.79 363.039 683.37V724.55H298.979V652.46L434.889 516.52C436.84 514.571 438.159 512.079 438.672 509.369C439.186 506.66 438.871 503.858 437.769 501.33C406.899 423.86 444.679 336.04 522.149 305.17C599.619 274.3 687.439 312.08 718.309 389.55C749.179 467.02 711.399 554.84 633.929 585.71C616.16 592.791 597.207 596.429 578.079 596.43H578.099ZM646.729 399.68C646.729 412.31 636.489 422.56 623.849 422.56C611.209 422.56 600.969 412.32 600.969 399.68C600.969 387.04 611.209 376.8 623.849 376.8C636.489 376.8 646.729 387.04 646.729 399.68Z" fill="white"/>
</g>
<defs>
<clipPath id="clip0_3_401">
<rect width="1024" height="1024" fill="white"/>
</clipPath>
</defs>
</svg>

<svg xmlns="http://www.w3.org/2000/svg" width="1024" height="1024" fill="none">
   <g clip-path="url(#a)">
      <path fill="#8C72BD" d="M512 1024c282.77 0 512-229.23 512-512S794.77 0 512 0 0 229.23 0 512s229.23 512 512 512Z"/>
      <path fill="#fff" d="M578.099 267c-98.61.06-178.51 80.06-178.44 178.67.01 19.62 3.26 39.11 9.61 57.68l-133.7 133.72a13.775 13.775 0 0 0-4.03 9.7v91.51c0 7.58 6.15 13.73 13.73 13.73h91.51c7.58 0 13.73-6.15 13.73-13.73V697.1h41.18c7.58 0 13.73-6.15 13.73-13.73v-41.18h41.18c3.64 0 7.13-1.45 9.7-4.03l23.91-23.88c93.24 31.9 194.7-17.82 226.6-111.07 31.9-93.24-17.82-194.7-111.07-226.6a178.487 178.487 0 0 0-57.63-9.61h-.01Zm0 329.43c-19.14.03-38.11-3.59-55.89-10.68a13.742 13.742 0 0 0-15.19 2.88l-26.13 26.1h-49.21c-7.58 0-13.73 6.15-13.73 13.73v41.18h-41.18c-7.58 0-13.73 6.15-13.73 13.73v41.18h-64.06v-72.09l135.91-135.94a13.72 13.72 0 0 0 2.88-15.19c-30.87-77.47 6.91-165.29 84.38-196.16 77.47-30.87 165.29 6.91 196.16 84.38 30.87 77.47-6.91 165.29-84.38 196.16a150.888 150.888 0 0 1-55.85 10.72h.02Zm68.63-196.75c0 12.63-10.24 22.88-22.88 22.88-12.64 0-22.88-10.24-22.88-22.88 0-12.64 10.24-22.88 22.88-22.88 12.64 0 22.88 10.24 22.88 22.88Z"/>
   </g>
   <defs>
      <clipPath id="a">
         <path fill="#fff" d="M0 0h1024v1024H0z"/>
      </clipPath>
   </defs>
</svg>
